packages/bezier-icons/icons/channel-btn-filled.svg

<svg width="24" height="24" viewBox="0 0 24 24" fill="none" xmlns="http://www.w3.org/2000/svg">
<path fill-rule="evenodd" clip-rule="evenodd" d="M14.7206 2H9.27942C5.25911 2 2 5.25911 2 9.27942V14.7206C2 18.7409 5.25911 22 9.27942 22H14.7206C18.7409 22 22 18.7409 22 14.7206V9.27942C22 5.25911 18.7409 2 14.7206 2ZM17.5378 14.3209C17.8377 13.607 18.0033 12.8249 18.0033 12.0024C18.0033 8.69942 15.3094 6 12.0065 6C8.6906 6 6.00222 8.68654 6.00406 12.0024C6.00406 15.3054 8.70348 18.0011 12.0065 18.0011C12.829 18.0011 13.611 17.8355 14.325 17.5356C14.7684 17.3497 15.2616 17.3166 15.729 17.4325L17.0336 17.7582C17.4734 17.8686 17.8708 17.4693 17.7604 17.0314L17.4347 15.7267C17.3188 15.2594 17.3519 14.7662 17.5378 14.3227V14.3209ZM15.5227 13.2324C14.8474 14.4855 13.5225 15.3357 12.0007 15.3357H11.997C10.4753 15.3357 9.15042 14.4837 8.4751 13.2324C8.39966 13.0926 8.45118 12.9178 8.58735 12.835L9.66196 12.1909C9.81469 12.1008 10.0061 12.1615 10.087 12.3179C10.444 13.0116 11.1653 13.4864 11.9989 13.4864C12.8324 13.4864 13.5538 13.0116 13.9107 12.3179C13.9917 12.1615 14.1849 12.1008 14.3358 12.1909L15.4104 12.835C15.5484 12.9178 15.5981 13.0926 15.5227 13.2324Z" fill="#313234"/>
</svg>

<svg xmlns="http://www.w3.org/2000/svg" width="24" height="24" fill="none" viewBox="0 0 24 24"><path fill="#313234" fill-rule="evenodd" d="M14.72 2H9.28A7.28 7.28 0 0 0 2 9.28v5.44A7.28 7.28 0 0 0 9.28 22h5.44A7.28 7.28 0 0 0 22 14.72V9.28A7.28 7.28 0 0 0 14.72 2m2.818 12.32c.3-.713.465-1.495.465-2.318C18.003 8.7 15.31 6 12.007 6a6 6 0 0 0-6.003 6.002c0 3.303 2.7 6 6.003 6 .822 0 1.604-.166 2.318-.466a2.24 2.24 0 0 1 1.404-.104l1.305.326c.44.11.837-.289.726-.727l-.325-1.304a2.24 2.24 0 0 1 .103-1.404zm-2.015-1.088A4 4 0 0 1 12 15.336h-.004a4 4 0 0 1-3.522-2.104.3.3 0 0 1 .112-.397l1.075-.644a.304.304 0 0 1 .425.127 2.149 2.149 0 0 0 3.824 0 .304.304 0 0 1 .425-.127l1.074.644a.3.3 0 0 1 .113.397" clip-rule="evenodd"/></svg>
